packages/icons/svg/24/CameraVideo.svg

<svg width="24" height="24" viewBox="0 0 24 24" fill="none" xmlns="http://www.w3.org/2000/svg">
<path d="M4 6C2.89543 6 2 6.89543 2 8V16C2 17.1046 2.89543 18 4 18H14C15.1046 18 16 17.1046 16 16V8C16 6.89543 15.1046 6 14 6H4Z" fill="#858585"/>
<path d="M18.2929 9.70711L20.2929 7.70711C20.9229 7.07714 22 7.52331 22 8.41421V15.5858C22 16.4767 20.9229 16.9229 20.2929 16.2929L18.2929 14.2929C18.1054 14.1054 18 13.851 18 13.5858V10.4142C18 10.149 18.1054 9.89464 18.2929 9.70711Z" fill="#858585"/>
</svg>

<svg width="24" height="24" fill="none" xmlns="http://www.w3.org/2000/svg" viewBox="0 0 24 24"><path d="M4 6a2 2 0 00-2 2v8a2 2 0 002 2h10a2 2 0 002-2V8a2 2 0 00-2-2H4zM18.293 9.707l2-2c.63-.63 1.707-.184 1.707.707v7.172c0 .89-1.077 1.337-1.707.707l-2-2a1 1 0 01-.293-.707v-3.172a1 1 0 01.293-.707z" fill="currentColor"></path></svg>
